X:2
T:East Nook of Fife, The
M:C|
L:1/8
N:"Brisk
S:McGibbon - Scots Tunes, book III, p. 89  (1762)
Z:AK/Fiddler's Companion
K:G
D2 | G4G2 Bc | dBGB dBGB | !trill!A4A2(gf) | !trill!e3d (ef g2) | 
dcBA GABc | dBGB !trill!d3B | ABcd BcAB | G2(E2E2) :|
|: dc | B2(G2G2)dc | B2(G2G2)ed | !trill!^c2(A2A2)(fg) | a2(A2A2)Bc | 
d2G2B2G2 | g2G2d2cB | ABcd BcAB | G2(E2E2) :|
|: (D/E/F) | GFG)A (BAB)c | d(c!trill!"BA) (GAB)G | !trill!(AGA)B (cBc)d | (edcB) (ABc)A | 
(GFG)A (BAB)c | (dcBA) (GAB)G | ABcd BcAB | G2(E2E2) :|
|: ef | !trill!(gfg)d BcdB | !trill!gfg)d BcdB | !trill!aga)e ^cdec | (aga)e ^cded | 
!trill!(gfg)d BcdB | gage (d/c/B/A/) GB | ABcd BcAB | G2(E2E2) :|
|: ef | (gab)g (dg)(dg) | bgdg dgbg | (abc')a dada | c'adb abc'a | 
(bc'd')b gabc' | (d'/c'/b) (d'/c'/b) d'3b | abc'a d'c'ba | g2 (e2e2) :|
|: dc | (B/A/G) dG gGdG | (B/A/G) dG gGdG | (^c/B/A) eA aAeA | (c/B/A) eA aAeA | 
(B/A/G) dG (B/A/G) gG | (B/c/d) (c/d/e) (d/e/f) gG | AB (c/B/A) (d/c/B) (c/B/A) | G2(E2E2) :||
